X:1
%
T:Lady Aylsboury's Reel
M:C
L:1/8
R:Country Dance
B:Preston's Twenty-Four Country Dances for the Year 1796
Z:AK/Fiddler's Companion
K:D
B|(A<D)F>D (A<D)G>B|(A<D)F>D E/E/E GB|A<DF>D AdBg|fdef d/d/d d:||
B|A d2 g f<de>f|gefd {f}edBd|ABde fdeg|fdef d/d/d dB|
Ad2g fedf|gefd {f}edBd|BdBG FAdA|B>cdF D/D/D D||

